flaticon/constructions/paint-brush-5.svg

<svg xmlns="http://www.w3.org/2000/svg" width="32" height="32" viewBox="0 0 24 24">
    <path d="M 20 6.800781 L 20 1.199219 C 20 0.519531 19.480469 0 18.800781 0 L 5.199219 0 C 4.519531 0 4 0.519531 4 1.199219 L 4 6.800781 C 3.761719 6.800781 3.601562 6.960938 3.601562 7.199219 L 3.601562 10.800781 C 3.601562 11.039062 3.761719 11.199219 4 11.199219 L 4 12.800781 C 4 14.558594 5.441406 16 7.199219 16 L 9.121094 16 C 8.839844 17.640625 8.800781 19.320312 8.800781 20.761719 C 8.800781 22.519531 10.199219 23.960938 11.921875 24 C 11.921875 24 11.960938 24 12 24 C 12.039062 24 12.078125 24 12.078125 24 C 13.800781 24 15.199219 22.519531 15.199219 20.761719 C 15.199219 19.28125 15.160156 17.640625 14.878906 16 L 16.800781 16 C 18.558594 16 20 14.558594 20 12.800781 L 20 11.199219 C 20.238281 11.199219 20.398438 11.039062 20.398438 10.800781 L 20.398438 7.199219 C 20.398438 6.960938 20.238281 6.800781 20 6.800781 Z M 4.398438 7.601562 L 19.601562 7.601562 L 19.601562 10.398438 L 4.398438 10.398438 Z M 4.800781 1.199219 C 4.800781 1 5 0.800781 5.199219 0.800781 L 6 0.800781 L 6 4.398438 C 6 4.640625 6.160156 4.800781 6.398438 4.800781 C 6.640625 4.800781 6.800781 4.640625 6.800781 4.398438 L 6.800781 0.800781 L 7.601562 0.800781 L 7.601562 5.601562 C 7.601562 5.839844 7.761719 6 8 6 C 8.238281 6 8.398438 5.839844 8.398438 5.601562 L 8.398438 0.800781 L 9.199219 0.800781 L 9.199219 4.398438 C 9.199219 4.640625 9.359375 4.800781 9.601562 4.800781 C 9.839844 4.800781 10 4.640625 10 4.398438 L 10 0.800781 L 10.800781 0.800781 L 10.800781 5.601562 C 10.800781 5.839844 10.960938 6 11.199219 6 C 11.441406 6 11.601562 5.839844 11.601562 5.601562 L 11.601562 0.800781 L 12.398438 0.800781 L 12.398438 4.398438 C 12.398438 4.640625 12.558594 4.800781 12.800781 4.800781 C 13.039062 4.800781 13.199219 4.640625 13.199219 4.398438 L 13.199219 0.800781 L 14 0.800781 L 14 5.601562 C 14 5.839844 14.160156 6 14.398438 6 C 14.640625 6 14.800781 5.839844 14.800781 5.601562 L 14.800781 0.800781 L 15.601562 0.800781 L 15.601562 4.398438 C 15.601562 4.640625 15.761719 4.800781 16 4.800781 C 16.238281 4.800781 16.398438 4.640625 16.398438 4.398438 L 16.398438 0.800781 L 17.199219 0.800781 L 17.199219 5.601562 C 17.199219 5.839844 17.359375 6 17.601562 6 C 17.839844 6 18 5.839844 18 5.601562 L 18 0.800781 L 18.800781 0.800781 C 19.039062 0.800781 19.199219 0.960938 19.199219 1.199219 L 19.199219 6.800781 L 4.800781 6.800781 Z M 19.160156 12.800781 C 19.160156 14.121094 18.078125 15.199219 16.761719 15.199219 L 14.359375 15.199219 C 14.238281 15.199219 14.121094 15.28125 14.039062 15.359375 C 13.960938 15.441406 13.921875 15.558594 13.960938 15.679688 C 14.28125 17.398438 14.359375 19.199219 14.359375 20.761719 C 14.398438 22.078125 13.320312 23.160156 12.039062 23.199219 C 12.039062 23.199219 11.960938 23.199219 11.921875 23.199219 C 10.640625 23.199219 9.601562 22.078125 9.601562 20.761719 C 9.601562 19.199219 9.679688 17.398438 10 15.679688 C 10.039062 15.558594 10 15.441406 9.921875 15.359375 C 9.839844 15.238281 9.71875 15.199219 9.601562 15.199219 L 7.199219 15.199219 C 6.492188 15.199219 5.855469 14.890625 5.414062 14.398438 L 6 14.398438 C 6.238281 14.398438 6.398438 14.238281 6.398438 14 C 6.398438 13.761719 6.238281 13.601562 6 13.601562 L 4.9375 13.601562 C 4.847656 13.347656 4.800781 13.082031 4.800781 12.800781 L 6.800781 12.800781 C 7.039062 12.800781 7.199219 12.640625 7.199219 12.398438 C 7.199219 12.160156 7.039062 12 6.800781 12 L 4.800781 12 L 4.800781 11.199219 L 19.160156 11.199219 Z M 19.160156 12.800781"/>
    <path d="M 12 21.601562 C 12.878906 21.601562 13.601562 20.878906 13.601562 20 C 13.601562 19.121094 12.878906 18.398438 12 18.398438 C 11.121094 18.398438 10.398438 19.121094 10.398438 20 C 10.398438 20.878906 11.121094 21.601562 12 21.601562 Z M 12 19.199219 C 12.441406 19.199219 12.800781 19.558594 12.800781 20 C 12.800781 20.441406 12.441406 20.800781 12 20.800781 C 11.558594 20.800781 11.199219 20.441406 11.199219 20 C 11.199219 19.558594 11.558594 19.199219 12 19.199219 Z M 12 19.199219"/>
</svg>

<svg xmlns="http://www.w3.org/2000/svg" width="32" height="32" viewBox="0 0 24 24">
    <path d="M20 6.8V1.2c0-.68-.52-1.2-1.2-1.2H5.2C4.52 0 4 .52 4 1.2v5.6c-.238 0-.398.16-.398.4v3.6c0 .24.16.4.398.4v1.6A3.21 3.21 0 0 0 7.2 16H9.12c-.281 1.64-.32 3.32-.32 4.762 0 1.758 1.398 3.199 3.12 3.238h.157c1.723 0 3.121-1.48 3.121-3.238 0-1.48-.039-3.121-.32-4.762H16.8A3.21 3.21 0 0 0 20 12.8v-1.6c.238 0 .398-.16.398-.4V7.2c0-.24-.16-.4-.398-.4zm-15.602.802h15.204v2.796H4.398zm.403-6.403C4.8 1 5 .801 5.199.801H6v3.597c0 .243.16.403.398.403.243 0 .403-.16.403-.403V.801h.8v4.8c0 .239.16.399.399.399.238 0 .398-.16.398-.398V.8H9.2v3.597c0 .243.16.403.403.403.238 0 .398-.16.398-.403V.801h.8v4.8c0 .239.16.399.4.399.241 0 .402-.16.402-.398V.8h.796v3.597c0 .243.16.403.403.403.238 0 .398-.16.398-.403V.801H14v4.8c0 .239.16.399.398.399.243 0 .403-.16.403-.398V.8h.8v3.597c0 .243.16.403.399.403.238 0 .398-.16.398-.403V.801h.801v4.8c0 .239.16.399.403.399.238 0 .398-.16.398-.398V.8h.8c.24 0 .4.16.4.398v5.602H4.8zm14.36 11.602a2.406 2.406 0 0 1-2.4 2.398H14.36c-.12 0-.238.082-.32.16-.078.082-.117.2-.078.32.32 1.72.398 3.52.398 5.083.04 1.316-1.039 2.398-2.32 2.437h-.117c-1.281 0-2.32-1.12-2.32-2.437 0-1.563.078-3.364.398-5.082a.317.317 0 0 0-.078-.32.367.367 0 0 0-.32-.16H7.199a2.392 2.392 0 0 1-1.785-.802H6c.238 0 .398-.16.398-.398 0-.238-.16-.398-.398-.398H4.937a2.378 2.378 0 0 1-.136-.801h2c.238 0 .398-.16.398-.403 0-.238-.16-.398-.398-.398h-2v-.8h14.36zm0 0"/>
    <path d="M12 21.602c.879 0 1.602-.723 1.602-1.602 0-.879-.723-1.602-1.602-1.602-.879 0-1.602.723-1.602 1.602 0 .879.723 1.602 1.602 1.602zm0-2.403a.802.802 0 0 1 0 1.602.802.802 0 0 1 0-1.602zm0 0"/>
</svg>
